dist/images/ico/ico_date.svg

<svg width="22" height="23" viewBox="0 0 22 23" fill="none" xmlns="http://www.w3.org/2000/svg">
<path d="M14.1111 11.124C13.8856 10.892 13.5122 10.892 13.2867 11.124L9.90333 14.604L8.66667 13.332C8.44111 13.1 8.06778 13.1 7.84222 13.332C7.61667 13.564 7.61667 13.948 7.84222 14.18L9.35111 15.732C9.65444 16.044 10.1444 16.044 10.4478 15.732L14.1033 11.972C14.3367 11.74 14.3367 11.356 14.1111 11.124ZM16.4444 5.1H15.6667V4.3C15.6667 3.86 15.3167 3.5 14.8889 3.5C14.4611 3.5 14.1111 3.86 14.1111 4.3V5.1H7.88889V4.3C7.88889 3.86 7.53889 3.5 7.11111 3.5C6.68333 3.5 6.33333 3.86 6.33333 4.3V5.1H5.55556C4.69222 5.1 4.00778 5.82 4.00778 6.7L4 17.9C4 18.78 4.69222 19.5 5.55556 19.5H16.4444C17.3 19.5 18 18.78 18 17.9V6.7C18 5.82 17.3 5.1 16.4444 5.1ZM15.6667 17.9H6.33333C5.90556 17.9 5.55556 17.54 5.55556 17.1V9.1H16.4444V17.1C16.4444 17.54 16.0944 17.9 15.6667 17.9Z" fill="#A4A4A4"/>
</svg>

<svg width="22" height="23" fill="none" xmlns="http://www.w3.org/2000/svg"><path d="M14.111 11.124a.575.575 0 00-.824 0l-3.384 3.48-1.236-1.272a.575.575 0 00-.825 0 .616.616 0 000 .848l1.51 1.552a.76.76 0 001.096 0l3.655-3.76a.608.608 0 00.008-.848zM16.444 5.1h-.777v-.8c0-.44-.35-.8-.778-.8a.791.791 0 00-.778.8v.8H7.89v-.8c0-.44-.35-.8-.778-.8a.791.791 0 00-.778.8v.8h-.777c-.864 0-1.548.72-1.548 1.6L4 17.9c0 .88.692 1.6 1.556 1.6h10.888c.856 0 1.556-.72 1.556-1.6V6.7c0-.88-.7-1.6-1.556-1.6zm-.777 12.8H6.333a.791.791 0 01-.777-.8v-8h10.888v8c0 .44-.35.8-.777.8z" fill="#A4A4A4"/></svg>
